X: 105
T: POLKA: Toormore No. 1
T: Tuar Mór No. 1
C: C: Trad.; S: De Danann; Johnny O'Leary
C: Set Leaders: Sophie, Anton, Tania
Z: [Unedited]; Northcregg at The Session
N: https://thesession.org/members/26966/sets/99393
R: Polka
M: 2/4
L: 1/8
Q: 1/4=140
K: Dmaj
ef/e/ dB|BA B/c/d|ef/e/ dB|BA A2|
ef/e/ dB|BA B/c/d|af/a/ gc|1 ed d2:|2 ed de||
|:f>e fA|B/c/d ef|g>f ga|ba f/g/a|
f>e fA|B/c/d ef|af/a/ gc|1 ed de:|2 ed d2||

